icon_installer/data/icons/scalable/actions/show-stop-sign-large-symbolic.svg

<?xml version="1.0" encoding="UTF-8"?>
<svg height="16px" viewBox="0 0 16 16" width="16px" xmlns="http://www.w3.org/2000/svg">
    <g fill="#222222">
        <path d="m 4.921875 -0.0078125 l -0.292969 0.2890625 l -4.6210935 4.582031 v 6.167969 l 4.9101565 4.953125 h 6.167969 l 4.910156 -4.953125 v -6.167969 l -4.914063 -4.8710935 z m 0.820313 2.0000005 h 4.519531 l 3.734375 3.707031 v 4.507812 l -3.742188 3.777344 h -4.503906 l -3.742188 -3.777344 v -4.507812 z m 0 0"/>
        <path d="m 6.484375 4.015625 l -2.457031 2.433594 v 3.03125 l 2.457031 2.476562 h 3.03125 l 2.457031 -2.476562 v -3.03125 l -2.457031 -2.433594 z m 0 0"/>
    </g>
</svg>

<svg xmlns="http://www.w3.org/2000/svg" width="16" height="16"><g fill="#222"><path d="m4.922-.008-.293.29-4.621 4.58v6.168l4.91 4.953h6.168l4.91-4.953V4.863l-4.914-4.87zm.82 2h4.52L13.996 5.7v4.508l-3.742 3.777H5.75l-3.742-3.777V5.699zm0 0"/><path d="M6.484 4.016 4.027 6.449V9.48l2.457 2.477h3.032l2.457-2.477V6.45L9.516 4.015zm0 0"/></g></svg>
